src/assets/contacts/contacts__phone.svg

<svg width="61" height="60" viewBox="0 0 61 60" fill="none" xmlns="http://www.w3.org/2000/svg">
<path d="M24.8489 35.1553C19.122 29.4283 17.8289 23.7014 17.5371 21.4068C17.4556 20.7724 17.674 20.1362 18.1278 19.6854L22.7624 15.053C23.4441 14.3717 23.5651 13.3098 23.0541 12.4926L15.6751 1.03457C15.1097 0.129641 13.9489 -0.196955 12.9947 0.28042L1.1487 5.85944C0.377025 6.23942 -0.0768612 7.05931 0.0107536 7.91498C0.63145 13.8116 3.20217 28.3069 17.4471 42.5529C31.6921 56.7989 46.1854 59.3686 52.0851 59.9893C52.9408 60.0769 53.7607 59.623 54.1406 58.8514L59.7197 47.0054C60.1952 46.0532 59.8708 44.8955 58.9696 44.3292L47.5116 36.9522C46.6948 36.4406 45.6331 36.5608 44.9512 37.2418L40.3188 41.8764C39.868 42.3303 39.2318 42.5486 38.5974 42.4671C36.3029 42.1753 30.5759 40.8822 24.8489 35.1553Z" fill="white"/>
<path d="M47.5909 32.0691C46.4483 32.0691 45.5219 31.1428 45.5219 30.0002C45.5122 21.4342 38.5705 14.4925 30.0045 14.4828C28.8619 14.4828 27.9355 13.5564 27.9355 12.4138C27.9355 11.2711 28.8619 10.3448 30.0045 10.3448C40.8549 10.3568 49.6479 19.1498 49.6599 30.0002C49.6599 31.1428 48.7336 32.0691 47.5909 32.0691Z" fill="white"/>
<path d="M57.9359 32.0693C56.7932 32.0693 55.8669 31.143 55.8669 30.0003C55.8509 15.7236 44.2813 4.15394 30.0045 4.13797C28.8619 4.13797 27.9355 3.21166 27.9355 2.06899C27.9355 0.926317 28.8619 0 30.0045 0C46.5657 0.0182442 59.9866 13.4392 60.0048 30.0003C60.0048 30.549 59.7869 31.0753 59.3989 31.4633C59.0108 31.8513 58.4846 32.0693 57.9359 32.0693Z" fill="white"/>
</svg>

<svg width="61" height="60" fill="none" xmlns="http://www.w3.org/2000/svg"><path d="M24.849 35.155c-5.727-5.727-7.02-11.454-7.312-13.748a2.057 2.057 0 01.59-1.722l4.635-4.632a2.07 2.07 0 00.292-2.56L15.675 1.035a2.07 2.07 0 00-2.68-.755L1.149 5.86A2.058 2.058 0 00.01 7.914c.62 5.897 3.191 20.392 17.436 34.638 14.245 14.246 28.738 16.816 34.638 17.436a2.058 2.058 0 002.056-1.138l5.579-11.846a2.069 2.069 0 00-.75-2.676l-11.458-7.377a2.069 2.069 0 00-2.56.29l-4.633 4.634a2.057 2.057 0 01-1.722.591c-2.294-.292-8.021-1.585-13.748-7.312z" fill="#fff"/><path d="M47.59 32.07A2.069 2.069 0 0145.523 30c-.01-8.566-6.951-15.508-15.517-15.517a2.07 2.07 0 010-4.138C40.855 10.357 49.648 19.15 49.66 30a2.069 2.069 0 01-2.07 2.07z" fill="#fff"/><path d="M57.936 32.07a2.069 2.069 0 01-2.07-2.07c-.014-14.276-11.584-25.846-25.86-25.862a2.069 2.069 0 010-4.138c16.56.018 29.982 13.44 30 30a2.069 2.069 0 01-2.07 2.07z" fill="#fff"/></svg>
